icons/1_Primary/SpaceHey.svg

<svg width="1024" height="1024" viewBox="0 0 1024 1024" fill="none" xmlns="http://www.w3.org/2000/svg">
<g clip-path="url(#clip0_2_3516)">
<path d="M512 1024C794.77 1024 1024 794.77 1024 512C1024 229.23 794.77 0 512 0C229.23 0 0 229.23 0 512C0 794.77 229.23 1024 512 1024Z" fill="#728DBE"/>
<path d="M518.82 560.23H518.76V753H742.92V560.23H742.86C741.765 531.258 729.486 503.838 708.601 483.728C687.717 463.619 659.852 452.384 630.86 452.384C601.868 452.384 574.003 463.619 553.119 483.728C532.235 503.838 519.955 531.258 518.86 560.23H518.82ZM549.5 352.35C549.5 336.261 554.271 320.532 563.21 307.154C572.149 293.776 584.854 283.35 599.719 277.192C614.584 271.035 630.94 269.424 646.721 272.563C662.501 275.702 676.996 283.45 688.373 294.827C699.75 306.204 707.498 320.699 710.637 336.479C713.776 352.26 712.165 368.617 706.008 383.481C699.85 398.346 689.424 411.051 676.046 419.99C662.668 428.929 646.94 433.7 630.85 433.7C609.277 433.692 588.59 425.119 573.336 409.864C558.081 394.61 549.508 373.923 549.5 352.35ZM349.15 378.69C283.99 378.69 231.08 428.51 231.08 489.86C231.08 551.21 284 601 349.15 601H386C417.286 600.968 447.281 588.526 469.404 566.404C491.526 544.281 503.968 514.286 504 483V378.69H349.15ZM336.76 509.62C336.76 512.513 336.093 514.703 334.76 516.19C334.1 516.927 333.286 517.509 332.375 517.895C331.464 518.281 330.479 518.46 329.49 518.42C324.723 518.42 322.34 515.49 322.34 509.63V485.2C322.34 480.573 321.65 477.017 320.27 474.53C318.89 472.043 316.277 470.8 312.43 470.8C309.922 470.767 307.469 471.538 305.43 473C303.335 474.506 301.725 476.591 300.8 479C300.02 481.153 299.63 484.983 299.63 490.49V509.61C299.63 512.47 298.987 514.65 297.7 516.15C297.03 516.906 296.199 517.5 295.267 517.89C294.336 518.28 293.328 518.454 292.32 518.4C287.553 518.4 285.17 515.47 285.17 509.61V446.91C285.17 443.983 285.797 441.787 287.05 440.32C287.706 439.58 288.521 438.997 289.433 438.617C290.346 438.236 291.333 438.066 292.32 438.12C293.326 438.065 294.331 438.236 295.262 438.62C296.193 439.005 297.026 439.592 297.7 440.34C298.987 441.827 299.63 444.017 299.63 446.91V468.36C301.218 466.485 303.024 464.807 305.01 463.36C306.775 462.117 308.735 461.177 310.81 460.58C313.031 459.947 315.331 459.634 317.64 459.65C321.042 459.583 324.405 460.385 327.41 461.98C329.704 463.307 331.678 465.122 333.193 467.295C334.709 469.469 335.728 471.949 336.18 474.56C336.556 477.005 336.734 479.476 336.71 481.95L336.76 509.62ZM365.12 501.25C366.216 503.549 367.949 505.485 370.114 506.827C372.279 508.169 374.783 508.861 377.33 508.82C378.931 508.837 380.526 508.631 382.07 508.21C383.543 507.787 384.945 507.146 386.23 506.31C387.532 505.475 388.772 504.545 389.94 503.53C391.067 502.543 392.53 501.21 394.33 499.53C395.234 498.823 396.364 498.468 397.51 498.53C398.821 498.471 400.106 498.906 401.11 499.75C401.579 500.186 401.946 500.721 402.185 501.316C402.423 501.91 402.528 502.55 402.49 503.19C402.387 504.824 401.86 506.402 400.96 507.77C399.742 509.714 398.168 511.411 396.32 512.77C393.964 514.528 391.331 515.88 388.53 516.77C385.048 517.884 381.406 518.422 377.75 518.36C368.463 518.36 361.243 515.71 356.09 510.41C350.937 505.11 348.36 497.927 348.36 488.86C348.321 484.818 348.964 480.799 350.26 476.97C351.433 473.481 353.327 470.278 355.82 467.57C358.326 464.914 361.404 462.862 364.82 461.57C368.608 460.137 372.631 459.428 376.68 459.48C381.76 459.335 386.785 460.569 391.22 463.05C395.052 465.219 398.198 468.421 400.3 472.29C402.243 475.828 403.274 479.794 403.3 483.83C403.3 487.463 402.26 489.82 400.18 490.9C398.1 491.98 395.17 492.517 391.39 492.51H363.14C363.102 495.539 363.78 498.534 365.12 501.25ZM460.32 468.84C460 470.073 459.61 471.327 459.15 472.6L440.3 522C439.048 525.555 437.451 528.978 435.53 532.22C434.028 534.642 431.895 536.609 429.36 537.91C426.8 539.243 423.35 539.91 419.01 539.91C414.77 539.91 411.593 539.45 409.48 538.53C408.486 538.144 407.642 537.451 407.07 536.552C406.498 535.652 406.228 534.594 406.3 533.53C406.256 532.819 406.368 532.106 406.629 531.443C406.89 530.779 407.293 530.181 407.81 529.69C409.082 528.704 410.674 528.223 412.28 528.34C413.051 528.34 413.819 528.447 414.56 528.66C415.339 528.855 416.137 528.962 416.94 528.98C418.287 529.044 419.629 528.79 420.86 528.24C421.932 527.629 422.819 526.742 423.43 525.67C424.439 523.946 425.314 522.147 426.05 520.29L427.38 517.06L409.59 472.26C408.719 470.5 408.164 468.602 407.95 466.65C407.958 465.433 408.305 464.242 408.95 463.21C409.587 462.149 410.49 461.274 411.57 460.67C412.617 460.034 413.815 459.689 415.04 459.67C415.927 459.611 416.815 459.761 417.634 460.109C418.452 460.456 419.177 460.991 419.75 461.67C421.01 463.389 421.961 465.314 422.56 467.36L434.79 502.95L446.39 469.85C447.095 467.703 447.926 465.599 448.88 463.55C449.381 462.336 450.195 461.276 451.24 460.48C452.315 459.888 453.535 459.611 454.76 459.68C455.87 459.686 456.958 459.99 457.91 460.56C458.89 461.116 459.697 461.933 460.24 462.92C460.749 463.866 461.011 464.926 461 466C460.86 466.667 460.633 467.613 460.32 468.84ZM385.32 473.26C387.633 475.713 388.967 479.413 389.32 484.36H363.14C363.633 479.487 365.037 475.82 367.35 473.36C368.474 472.138 369.848 471.173 371.379 470.529C372.909 469.886 374.561 469.579 376.22 469.63C377.912 469.557 379.6 469.842 381.174 470.468C382.747 471.093 384.171 472.045 385.35 473.26H385.32Z" fill="white"/>
</g>
<defs>
<clipPath id="clip0_2_3516">
<rect width="1024" height="1024" fill="white"/>
</clipPath>
</defs>
</svg>

<svg xmlns="http://www.w3.org/2000/svg" viewBox="0 0 1024 1024">
   <circle cx="512" cy="512" r="512" style="fill:#1d4ed8"/>
   <path d="M518.82 560.23h-.06V753h224.16V560.23h-.06a112.08 112.08 0 0 0-224 0Zm30.68-207.88a81.35 81.35 0 1 1 81.35 81.35 81.38 81.38 0 0 1-81.35-81.35Zm-200.35 26.34c-65.16 0-118.07 49.82-118.07 111.17S284 601 349.15 601H386a118.12 118.12 0 0 0 118-118V378.69Zm-12.39 130.93q0 4.34-2 6.57a6.71 6.71 0 0 1-5.27 2.23q-7.15 0-7.15-8.79V485.2q0-6.94-2.07-10.67t-7.84-3.73a11.75 11.75 0 0 0-7 2.2 13.23 13.23 0 0 0-4.63 6q-1.17 3.23-1.17 11.49v19.12q0 4.29-1.93 6.54a6.71 6.71 0 0 1-5.38 2.25q-7.15 0-7.15-8.79v-62.7q0-4.39 1.88-6.59a6.56 6.56 0 0 1 5.27-2.2 6.75 6.75 0 0 1 5.38 2.22q1.93 2.23 1.93 6.57v21.45a30.89 30.89 0 0 1 5.38-5 19.39 19.39 0 0 1 5.8-2.78 24.28 24.28 0 0 1 6.83-.93 20 20 0 0 1 9.77 2.33 18.1 18.1 0 0 1 8.77 12.58 45.72 45.72 0 0 1 .53 7.39Zm28.36-8.37a13.29 13.29 0 0 0 12.21 7.57 17.32 17.32 0 0 0 4.74-.61 15.45 15.45 0 0 0 4.16-1.9 31.93 31.93 0 0 0 3.71-2.78q1.69-1.48 4.39-4a4.75 4.75 0 0 1 3.18-1 5.23 5.23 0 0 1 3.6 1.22 4.35 4.35 0 0 1 1.38 3.44 9.41 9.41 0 0 1-1.53 4.58 18.21 18.21 0 0 1-4.64 5 26.41 26.41 0 0 1-7.79 4 33.52 33.52 0 0 1-10.78 1.59q-13.93 0-21.66-7.95t-7.73-21.55a36 36 0 0 1 1.9-11.89 26.21 26.21 0 0 1 5.56-9.4 24.09 24.09 0 0 1 9-6 32.32 32.32 0 0 1 11.86-2.09 28.14 28.14 0 0 1 14.54 3.57 23.52 23.52 0 0 1 9.08 9.24 24.29 24.29 0 0 1 3 11.54q0 5.45-3.12 7.07t-8.79 1.61h-28.25a19.21 19.21 0 0 0 1.98 8.74Zm95.2-32.41q-.48 1.85-1.17 3.76L440.3 522a57.6 57.6 0 0 1-4.77 10.22 15.69 15.69 0 0 1-6.17 5.69q-3.84 2-10.35 2-6.36 0-9.53-1.38a5 5 0 0 1-3.18-5 4.88 4.88 0 0 1 1.51-3.84 6.52 6.52 0 0 1 4.47-1.35 8.25 8.25 0 0 1 2.28.32 10.81 10.81 0 0 0 2.38.32 8.61 8.61 0 0 0 3.92-.74 6.88 6.88 0 0 0 2.57-2.57 39.38 39.38 0 0 0 2.62-5.38l1.33-3.23-17.79-44.8a16.78 16.78 0 0 1-1.64-5.61 6.57 6.57 0 0 1 1-3.44 7.09 7.09 0 0 1 2.62-2.54 6.89 6.89 0 0 1 3.47-1 5.67 5.67 0 0 1 4.71 2 18.33 18.33 0 0 1 2.81 5.69l12.23 35.59 11.6-33.1a57.15 57.15 0 0 1 2.49-6.3 7.41 7.41 0 0 1 2.36-3.07 6.54 6.54 0 0 1 3.52-.8 6.19 6.19 0 0 1 3.15.88 6.09 6.09 0 0 1 2.33 2.36A6.36 6.36 0 0 1 461 466q-.21 1-.68 2.84Zm-75 4.42q3.47 3.68 4 11.1h-26.18q.74-7.31 4.21-11a11.57 11.57 0 0 1 8.87-3.73 12 12 0 0 1 9.13 3.63Z" style="fill:#fff"/>
</svg>
